X:1
T:Title
%%score ( 1 2 ) { 3 | 4 }
L:1/8
Q:1/4=110
M:4/4
K:F
V:1 treble nm="Grand Piano, Staff 1"
V:2 treble 
V:3 bass nm="Choir Pad, Dunfermline, CM"
V:4 bass 
V:1
 z4 G2 z2 | [FB]2 [Fc]2 [Ec]2 [FA]2 | z2 d2 z4 | =B2 z2 z4 | z4 c2 z2 | z2 B2 z4 | z4 F2 z2 | %7
 [CE]2 [CF]6- | [CF]2 z2 z4 |] %9
V:2
 [CF]2 [CF]2 DE [FA]2 | x8 | [CA]2 DE [Ec]2 [Dc]2 | GF [Ec]6 | [Gc]2 [FA]2 GA [Bd]2 | %5
 [Ac]2 z G [FA]2 [EG]2 | [FA]2 [DG]2 A,B, [CF]2 | x8 | x8 |] %9
V:3
 A,2 C2 B,2 C2 | F,2 G,2 G,2 A,2 | F,2 A,2 G,2 A,2 | D2 C6 | C2 F2 _E2 D2 | E2 FC B,D E2 | %6
 C2[K:bass] B,2 F,2 G,2 | G,2 A,6- | A,2 z2 z4 |] %9
V:4
 F,2 A,2 G,2 F,2 | D,2 C,2 C,2 F,2 | z2 D,2 E,2 F,2 | G,2 C,6 | E,2 F,2 C,2 B,,2 | %5
 C,2 D,E, F,2 C2 | F,2 B,,2 D,2 C,2 | C,2 F,6- | F,2 z2 z4 |] %9

